X:1
T: Hoop Her and Gird Her
C:
R:Jig
Q:180
K:G
M:6/8
L:1/16
|:G4G2 Bcd2B2|G2B2G2 B4A2|G2B2G2 G2BcdB|A2=F2A2 c4A2|G6 G2BcdB|G2A2B2 g2d2B2|c2a2c2 B2g2B2|A2=F2A2 c4A2:|
|:g6 d2e2f2|g2f2e2 d2B2G2|g6 d2e2=f2|A2=F2A2 c4A2|g6 d2e2f2|g2f2e2 d2c2B2|c2a2c2 B2g2B2|A2=F2A2 c4A2:|
|:B2G2G2 A2D2D2|B2G2G2 A2B2c2|B2G2G2 A2D2D2|A2=F2A2 A2B2c2|B2G2G2 A2D2D2|G2A2B2 g2d2B2|c2a2c2 B2g2B2|A2=F2A2 c4A2:|
|:g2d2B2 g2d2B2|G2A2B2 d4B2|g2d2B2 g2d2B2|A2=F2A2 c4A2|g2d2B2 g2d2B2|G2A2B2 g2d2B2|c2a2c2 B2g2B2|A2=F2A2 c4A2:|
